X: 141008
Q: "Slow."
M: C
L: 1/8
K: Am
vAB |\
c2c2 B2B2 | ABAG E2(E^F) | G2A2 G2E2 | G2E2 D2(ED) |\
c4 B4 | (AB)AG E4 | G2A2 G2E2 | G2E2 D2(ED) |\


